X: 2056
T: Ass In The Graveyard, The
R: waltz
M: 3/4
K: Dmajor
A|:A2 dc de|d3e fd|ed ce dB|A2 A2 ef|
g2 ef ge|f2 de fd|1 ed ce dB|c2 c2 A2:|2 ed cd ec|d2 d2 fg||
|:ag fa ge|f2 f2 ea|d2 c2 B2|A2 A2 ef|
g2 ef ge|f2 de fd|1 ed ce dB|c2 c2 A2:|2 ed cd ec|d2 d2||
|:fg|ag fa ge|f2 f2 ea|d2 c2 B2|A2 A2 ef|
g2 ef ge|f2 de fd|ed ce dB|c2 c2 A2|
A2 dc de|d3e fd|ed ce dB|A2 A2 ef|
g2 ef ge|f2 de fd|ed cd ec|d2 d2||

